X:5
T:Mazurka (nach Bucher)  GC (5letras transposed)
%%MIDI program 21
R:marzurka
M:3/4
L:1/8
K:G transpose=3 %%MIDI gchordon
"G"b>ag2f2 | "Am"e>dc4 | "D7"a>g f>e d>c | "G"B>ed4 | b>ag2f2 | "Am"e>dc4 | "D7"a>g f>e d>f | "G"g2g2z2 |: 
"G"g>a g>f e>d | "D7".c2!>!f4 | d>ed2F2 | "G"G>B d>gb2 | g>a g>f e>d | "D7".c2!>!f4 | d'>e' d'>c' b>a | "G"g2g2z2 :: [K:C] 
"C"g2c'2e2 | "Dm"f>ga4 | "G7"d>ef2B2 | "C"c>e a>ge2 | g2c'2e2 | "Dm"f>ga4 | "G7"d>e f>a g>b | "C"c'2c'2z2 ::[K:G] 
"D7".d2!>!c'4 | "G"d>c'b4 | "D7"a>^g a>b c'>e' | "G"d'2 b>ab2 | "D7".d2!>!c'4 | "G"d>c'b4 | "D7"a>b c'>d' c'>f | "G"g2g2z2 :| 
% mz09146

